X:14
%%etbk:tnset id:5,pos:3,rep:3x,ant:
%%etbk:wsite http://www.thesession.org/tunes/display/10091
%%etbk:pldat 2016-04-12T16:23,2016-01-27T17:49,2015-11-25T16:11,2015-03-26T19:16,2015-03-05T18:58,2015-01-19T19:30,2014-12-29T17:25,2014-11-22T16:19,2014-11-19T17:06,2014-11-10T18:38,2014-09-15T18:51,2014-09-11T19:21,2014-09-08T18:04,2014-05-20T16:15,2014-05-09T18:14,2014-04-26T17:32,2014-04-07T19:01,2014-04-01T17:52,2014-03-21T17:01,2014-03-19T19:39,2014-02-05T15:39,2013-12-10T18:58,2013-11-19T16:09,2013-11-17T15:56,2013-11-16T14:24,2013-11-07T15:38,2013-10-04T17:35,2013-10-02T16:23,2013-05-15T16:31,2013-05-01T17:28
T: West Clare Railway, The
Z: Piano Box Version by Martin Fleischmann
H: Created 2013-02-19 /  Last Modified 2013-10-02
M: 4/4
L: 1/8
R: Reel
K: Ador
"am"!1!E!2!G!3!A!4!B !3!ccAB|cBcd !3!c!1!A!2!G!1!D|!1!EGA!4!B !3!cBcd|[1 ecde !3!c!1!AA!2!G:|[2 ecde cAA!3!e||
"am"!5!a!4!g!3!e!2!d !1!c3e|!5!a!4!g!3!e!2!d !1!c!1!AA!3!e|!5!aged c2ce| "G"!4!gfga !4!g!3!ede|
"am"aged c3e|aged cAA!2!d|!3!e2!5!aa !4!g!3!e!2!d!1!B| !3!cded c!1!AA!2!G||


